X:1
T:Ahi cor se pur
T:Ahi cor se pur
T:Giovanni Croce Ghiozotto
T:Aria Terza
T:Source : Canzonette a 3 voci---Libro primo---Venetia---G.Vincenti---1601. Editor : André Vierendeels (13/02/15).
C:Giovanni Croce Ghizotto
%%score [ 1 2 3 ]
L:1/8
Q:1/4=120
M:4/4
K:F
V:1 treble nm="Canto" snm="S"
V:2 treble nm="Alto" snm="A"
V:3 treble-8 nm="Tenor" snm="T"
V:1
 z2 A2 A4- | A2 c2 B2 G2 | A4 A4 | z2 A2 A4- | A2 c2 B2 G2 | A4 A4 | F2 FF F2 E2 | D4 D4 | %8
w: Ahi cor|_ se pur sei|co- re,|ahi cor|_ se pur sei|co- re,|co- me do- lor non|sen- ti,|
w: Ahi cor|_ se pur sei|co- re,|ahi cor|_ se pur sei|co- re,|co- me puoi tu gio-|i- re,|
w: Ahi cor|_ se pur sei|co- re,|ahi cor|_ se pur sei|co- re,|per- che non por- gi|au- ra,|
w: Ahi cor|_ se pur sei|co- re,|ahi cor|_ se pur sei|co- re,|per- che non hai pie-|ta- de|
w: E se|_ sen- ti do-|lo- re,|E se|_ sen- te do-|lo- re,|per- che non sei tu|pi- o|
w: Hor si|_ ch'a- des- s'io|veg- go,|Hor si|_ ch'a des- s'io|veg- go,|che non vuoi tu ch'io|mo- ra,|
 z2 G2 c2 B2 | A3 G F2 G2 | A2 c2 B4- | B2 A2 G4 | A8 | F2 FF F2 E2 | D4 D4 | z2 G2 c2 B2 | %16
w: ve- den- do'in|te mio Sol tan-|ti, tan- ti|_ tor- men-|ti,|co- me do- lor non|sen- ti,|ve- den- do'in|
w: se ve- di'e|scor- gi las- so'il|mio mar- ti-||re?|Co- me puoi tu gio-|i- re,|se ve- di'e|
w: a la mi-|se- ra mia stan-|ca- ta vi-||te!|Per- che non por- gi|au- ra,|a la mi-|
w: de la mia|do- glia'e di mia|fe- ri- ta-||te?|Per- che non hai pie-|ta- de|de la mia|
w: a l'in- fe-|li- c'e mi- ser|spir- to mi-||o?|Per- che non sei tu|pi- o|a l'in- fe-|
w: ma che fil-|li gra- tio- sa|sem- pre'a- do-||ra,|che non vuoi tu ch'io|mo- ra,|ma che fil-|
 A3 G F2 G2 | A2 c2 B4- | B2 A2 G4 | A8 |] %20
w: te mio Sol tan-|ti, tan- ti|_ tor- men-|ti.|
w: scor- gi las- so'il|mio mar- ti-||re?|
w: se- ra mia stan-|ca- ta vi-||te!|
w: do- glia'e di mia|fe- ri- ta-||te?|
w: li- c'e mi- ser|spir- to mi-||o?|
w: li gra- tio- sa|sem- pre'a- do-||ra.|
V:2
 z2 F2 F4 | C4 D2 E2 | F4 F4 | z2 F2 F4 | C4 D2 E2 | F4 F4 | D2 DD D2 C2 | =B,4 B,4 | z2 D2 E2 E2 | %9
w: Ahi cor|se pur sei|co- re,|ahi cor|se pur sei|co- re,|co- me do- lor non|sen- ti,|ve- den- do'in|
w: Ahi cor|se pur sei|co- re,|ahi cor|se pur sei|co re,|co- me puoi tu gio-|i- re,|se ve- di'e|
w: Ahi cor|se pur sei|co- re,|ahi cor|se pur sei|co- re,|per- che non por- gi|au- ra,|a la mi-|
w: Ahi cor|se pur sei|co- re,|ahi cor|se pur sei|co re,|per- che non hai pie-|ta- de|de la mia|
w: E se|sen- ti do-|lo- re,|E se|sen- ti do-|lo- re,|per- che non sei tu|pi- o|a l'in- fe-|
w: Hor si|ch'a- des- s'io|veg- go,|hor si|ch'a- des- s'io|veg go,|che non vuoi tu ch'io|mo- ra,|ma che fil-|
 F3 E D2 D2 | E2 F4 G2- | G2 F4 E2 | F8 | D2 DD D2 C2 | =B,4 B,4 | z2 D2 E2 E2 | F3 E D2 D2 | %17
w: te mio Sol tan-|ti, tan- ti|_ tor- men-|ti,|co- me do- lor non|sen- ti,|ve- den- do'in|te mio Sol tan-|
w: scor- gi las- so'il|mio mar- ti-||re?|Co- me puoi tu gio-|i- re,|se ve- di'e|scor- gi las- so'il|
w: se- ra mia stan-|ca- ta vi-||te!|Per- che non por- gi|au- ra,|a la mi-|se- ra mia stan-|
w: do- glia'e di mia|fe- ri- ta-||te?|Per- che non hai pie-|ta- de|de la mia|do- glia'e di mia|
w: li- c'e mi- ser|spir- to mi-||o?|Per- che non sei tu|pi- o|a l'in- fe-|li- c'e mi- ser|
w: li gra- tio- sa|sem- pre'a- do-||ra,|che non vuoi tu ch'io|mo- ra,-|ma- che fil-|li gra- tio- sa|
 E2 F4 G2- | G2 F4 E2 | F8 |] %20
w: ti, tan- ti|_ tor- men-|ti?|
w: mio mar- ti-||re?|
w: ca- ta vi-||te!|
w: fe- ri- ta-||te?|
w: spir- to mi-||o?|
w: sem- pre'a- do-||ra.|
V:3
 z2 F2 F4- | F2 A2 B2 c2 | F4 F4 | z2 F2 F4- | F2 A2 B2 c2 | F4 F4 | B2 BB B2 c2 | G4 G2 G2 | %8
w: Ahi cor|_ se pur sei|co- re,|ahi cor|_ se pur sei|co re,|co- me do- lor non|sen- ti, ve-|
w: Ahi cor|_ se pur sei|co- re,|ahi cor|_ se pur sei|co- re,|co- me puoi tu gio-|i- re, se|
w: Ahi cor|_ se pur sei|co- re,|ahi cor|_ se pur sei|co re,|per- che puoi tu gio-|i- re, a|
w: Ahi cor|_ se pur sei|co- re,|ahi cor|_ se pur sei|co re,|per- che non hai pie-|ta- de de|
w: E se|_ sen- ti do-|lo- re,|e se|_ sen- ti do-|lo- re,|per- che non sei tu|pi- o a|
w: Hor si|_ ch'a- des- s'io|veg- go,|hor si|_ ch'a des- s'io|ve- go,|che non vuoi tu ch'io|mo- ra, ma|
 c2 B2 A2 G2 | F4 B4 | A4 B4 | c8 | F8 | B2 BB B2 c2 | G4 G2 G2 | c2 B2 A2 G2 | F4 B4 | A4 B4 | %18
w: den- do'in te mio|Sol tan-|ti, tor-|men-|ti,|co- me do- lor non|sen- ti, ve-|den- do'in te mio|Sol tan-|ti tor-|
w: ve- di'e scor- gi|las- so'il|mio mar-|ti-|re?|Co- me puoi tu gio-|i- re, se|ve- di' scor- gi|las- so'il|mio mar-|
w: la mi- se- ra|mia sten-|ca- ta|vi-|te!|Per- che non por- gi|au- ra, a|la mi- se- ra|mia stan-|ca- ta|
w: la mia do- glia'e|di mia|fe- ri-|ta-|te?|Per- che non hai pie-|ta- de de|la mia do- glia'e|di mia|fe- ri-|
w: l'in- fe- li- c'e|mi- ser|spir- to|mi-|o?|Per- che non sei tu|pi- o a|l'in- fe- li- c'e|mi- ser|spir- to|
w: cha fil- li gra-|tio- sa|sem- pre'a-|do-|ra,|che non vuoi tu ch'io|mo- ra, ma|che fil- li gra-|tio- sa|sem- pre'a-|
 c8 | F8 |] %20
w: men-|ti?|
w: ti-|re?|
w: vi-|te!|
w: ta-|te?|
w: mi-|o?|
w: do-|ra.|

